X: 26942
T: Miss Buchanan Of Cambusmore
R: jig
M: 6/8
K: Eminor
GFE EGE|EB,E E2F|GAB cAd|BGE AFD|
{EF}GFE EGE|EB,E E2F|GAB cAF|BGE E2:|
B|e2f gfe|eBe e2f|g2a bge|afd def|
e2f gfe|eBe e2F|GAB cAF|BGE E2B|
e2f gfe|eBe e2f|g2a bge|afd d2g/a/|
bgb af^d|{a}gfe dBG|ABc BAF|BGE E2||

